X:1
T:Leatherwing Bat
M:4/4
L:1/4
K:C
 c A/2A/2 A A| E/2E/2 G G2| c A A G| c d e3/2 e/2| e g e e| d e A3/2 A/2|\
 A e d c| A G A2|
